X:1
T:Title
%%score { 1 | 2 }
L:1/8
M:6/8
K:Ab
V:1 treble nm="Grand Piano"
V:2 bass 
V:1
 z3 z2[Q:1/4=84] [CE] | [CE]>[CE][CE] [CE]<[CE][CE] | [DF]<[FA][FB] c2 B | A<AA A2 [FA] | %4
 [EB]3- [EB]2 [DE] | [CE]<[CE][CE] [CE]<[CE][CE] | [DF]<[FA][FB] [=Ec]2 [EB] | A<AA G2 B | %8
[M:5/8] [CA]-[CA]- [CA]3 |[M:1/8] c |[M:3/4] e>c e[EA]/[EA]/- [EA]B | c>E F [CE]2 [CE] | %12
 A>A A[=Dc]- [Dc]/[DB]/[DA] | [Ee]4- [Ee][Ee] | [Ec]>[DB] [CA][Ec]/[CA]/- [CA][DB] | %15
 [Ec]>E F [CE]2 [Ee] | [Ee]<[Ec] [EA][DB] z [CA] |[M:5/8] [CA]-[CA]- [CA]3 |] %18
V:2
 z3 z2 [A,,A,] | [A,,A,]>[A,,A,][A,,A,] [A,,A,]<[A,,A,][A,,A,] | %2
 [D,A,]<[D,A,][D,A,] [A,E]2 [E,G,D] | [F,A,C]<[F,A,C][F,A,C] [F,A,=D]2 [B,,B,] | %4
 [E,G,]3- [E,G,]2 [E,G,] | [A,,A,]<[A,,A,][A,,A,] [A,,A,]<[A,,A,][A,,A,] | %6
 [D,A,]<[D,A,][D,F,] [C,G,]2 [C,C] | [F,CF]<[F,CF][=E,A,D] [_E,B,E]2 [E,G,D] | %8
[M:5/8] [A,,A,]-[A,,A,]- [A,,A,]3 |[M:1/8] [A,E] | %10
[M:3/4] [A,CE]>[A,CE] [A,CE][C,A,]/[C,A,]/- [C,A,][E,G,E] | [A,E]>[C,A,] [D,A,D] [A,,A,]2 [A,,A,] | %12
 [F,A,C]>[F,B,=D] [F,CE][B,,A,]- [B,,A,]/[B,,A,]/[F,B,] | [E,G,]4- [E,G,][E,G,] | %14
 [A,,A,]>[A,,A,] [A,,A,][A,,A,]/[A,,A,]/- [A,,A,][A,,E,] | %15
 [A,,A,]>[C,A,] [D,A,D] [A,,A,]2 [G,,B,] | [A,,C]<[A,,A,] [C,A,][E,G,] z [A,,A,] | %17
[M:5/8] [A,,A,]-[A,,A,]- [A,,A,]3 |] %18

